packages/components/src/components/icon/common/ic-installation-macos.svg

<svg viewBox="0 0 138 40"><defs/><g fill="none" fill-rule="evenodd"><path stroke="#999" d="M134 .5c.966 0 1.841.392 2.475 1.025.633.634 1.025 1.509 1.025 2.475h0v32c0 .966-.392 1.841-1.025 2.475-.634.633-1.509 1.025-2.475 1.025h0H4c-.966 0-1.841-.392-2.475-1.025C.892 37.84.5 36.966.5 36h0V4c0-.966.392-1.841 1.025-2.475C2.16.892 3.034.5 4 .5h130z"/><path fill="var(--fill-color1)" fill-rule="nonzero" d="M44.08 18c2.22 0 3.684-1.404 3.684-4.188S46.3 9.624 44.08 9.624h-3.156V18h3.156zm0-1.62h-1.332v-5.136h1.332c1.08 0 1.752.588 1.752 1.92v1.296c0 1.332-.672 1.92-1.752 1.92zm8.568 1.764c2.22 0 3.684-1.488 3.684-4.332S54.868 9.48 52.648 9.48s-3.684 1.488-3.684 4.332 1.464 4.332 3.684 4.332zm0-1.62c-1.092 0-1.752-.756-1.752-2.088v-1.248c0-1.332.66-2.088 1.752-2.088s1.752.756 1.752 2.088v1.248c0 1.332-.66 2.088-1.752 2.088zM61.264 18l1.056-4.536.42-1.836h.036l.408 1.836L64.24 18h2.076l1.944-8.376h-1.728l-.804 4.02-.444 2.328h-.036l-.516-2.328-.936-4.02h-1.992l-.924 4.02-.528 2.328h-.036l-.444-2.328-.792-4.02h-1.8L59.176 18h2.088zm9.984 0v-5.64h.036l.804 1.68L74.38 18h1.992V9.624h-1.716v5.64h-.036l-.804-1.68-2.292-3.96h-1.992V18h1.716zm11.988 0v-1.62h-3.192V9.624H78.22V18h5.016zm4.704.144c2.22 0 3.684-1.488 3.684-4.332S90.16 9.48 87.94 9.48s-3.684 1.488-3.684 4.332 1.464 4.332 3.684 4.332zm0-1.62c-1.092 0-1.752-.756-1.752-2.088v-1.248c0-1.332.66-2.088 1.752-2.088s1.752.756 1.752 2.088v1.248c0 1.332-.66 2.088-1.752 2.088zM94.312 18l.6-1.992h2.796l.6 1.992h1.896L97.48 9.624h-2.256L92.464 18h1.848zm2.952-3.54h-1.92l.924-3.18h.06l.936 3.18zm7.26 3.54c2.22 0 3.684-1.404 3.684-4.188s-1.464-4.188-3.684-4.188h-3.156V18h3.156zm0-1.62h-1.332v-5.136h1.332c1.08 0 1.752.588 1.752 1.92v1.296c0 1.332-.672 1.92-1.752 1.92z"/><text fill="var(--fill-color1)" fill-rule="nonzero" font-family="IBMPlexSans, IBM Plex Sans" font-size="10" transform="translate(40 22)"><tspan x="0" y="10">for macOS .dmg</tspan></text><g><path fill="var(--fill-color1)" fill-rule="nonzero" d="M24.196 13.79l.292.019c1.757.055 3.385.936 4.393 2.378a5.4557 5.4557 0 00-2.594 4.576c.002 2.116 1.267 4.025 3.213 4.849a12.086 12.086 0 01-1.671 3.408c-.985 1.475-2.017 2.915-3.655 2.942-1.592.037-2.127-.938-3.953-.938-1.842 0-2.413.911-3.94.975-1.56.057-2.752-1.574-3.772-3.035-2.039-2.983-3.627-8.407-1.498-12.097 1-1.799 2.868-2.94 4.923-3.007 1.562-.032 3.012 1.056 3.972 1.056.942 0 2.733-1.301 4.582-1.107l-.292-.019zM24.507 8a5.3702 5.3702 0 01-1.227 3.847 4.5076 4.5076 0 01-3.562 1.687 5.1152 5.1152 0 011.259-3.705A5.4558 5.4558 0 0124.507 8z"/><path d="M8 8h24v24H8z"/></g></g></svg>

<?xml version="1.0" encoding="UTF-8"?>
<svg width="138px" height="40px" viewBox="0 0 138 40" version="1.1" xmlns="http://www.w3.org/2000/svg" xmlns:xlink="http://www.w3.org/1999/xlink">
    <title>6E6017C8-DD2F-4103-BCC8-5FEFBAD9A6FF@1x</title>
    <g id="Symbols" stroke="none" stroke-width="1" fill="none" fill-rule="evenodd">
        <g id="Mt5/download-MT5-app-section" transform="translate(-395.000000, -219.000000)">
            <g id="platform" transform="translate(0.000000, 64.000000)">
                <g id="pc-or-web" transform="translate(103.000000, 100.000000)">
                    <g id="macOS" transform="translate(292.000000, 55.000000)">
                        <g id="Group">
                            <path d="M134,0.5 C134.966,0.5 135.841,0.892 136.475,1.525 C137.108,2.159 137.5,3.034 137.5,4 L137.5,4 L137.5,36 C137.5,36.966 137.108,37.841 136.475,38.475 C135.841,39.108 134.966,39.5 134,39.5 L134,39.5 L4,39.5 C3.034,39.5 2.159,39.108 1.525,38.475 C0.892,37.84 0.5,36.966 0.5,36 L0.5,36 L0.5,4 C0.5,3.034 0.892,2.159 1.525,1.525 C2.16,0.892 3.034,0.5 4,0.5 L4,0.5 L134,0.5 Z" id="Path" stroke="#999999"></path>
                            <path d="M44.08,18 C46.3,18 47.764,16.596 47.764,13.812 C47.764,11.028 46.3,9.624 44.08,9.624 L40.924,9.624 L40.924,18 L44.08,18 Z M44.08,16.38 L42.748,16.38 L42.748,11.244 L44.08,11.244 C45.16,11.244 45.832,11.832 45.832,13.164 L45.832,14.46 C45.832,15.792 45.16,16.38 44.08,16.38 Z M52.648,18.144 C54.868,18.144 56.332,16.656 56.332,13.812 C56.332,10.968 54.868,9.48 52.648,9.48 C50.428,9.48 48.964,10.968 48.964,13.812 C48.964,16.656 50.428,18.144 52.648,18.144 L52.648,18.144 Z M52.648,16.524 C51.556,16.524 50.896,15.768 50.896,14.436 L50.896,13.188 C50.896,11.856 51.556,11.1 52.648,11.1 C53.74,11.1 54.4,11.856 54.4,13.188 L54.4,14.436 C54.4,15.768 53.74,16.524 52.648,16.524 Z M61.264,18 L62.32,13.464 L62.74,11.628 L62.776,11.628 L63.184,13.464 L64.24,18 L66.316,18 L68.26,9.624 L66.532,9.624 L65.728,13.644 L65.284,15.972 L65.248,15.972 L64.732,13.644 L63.796,9.624 L61.804,9.624 L60.88,13.644 L60.352,15.972 L60.316,15.972 L59.872,13.644 L59.08,9.624 L57.28,9.624 L59.176,18 L61.264,18 Z M71.248,18 L71.248,12.36 L71.284,12.36 L72.088,14.04 L74.38,18 L76.372,18 L76.372,9.624 L74.656,9.624 L74.656,15.264 L74.62,15.264 L73.816,13.584 L71.524,9.624 L69.532,9.624 L69.532,18 L71.248,18 L71.248,18 Z M83.236,18 L83.236,16.38 L80.044,16.38 L80.044,9.624 L78.22,9.624 L78.22,18 L83.236,18 Z M87.94,18.144 C90.16,18.144 91.624,16.656 91.624,13.812 C91.624,10.968 90.16,9.48 87.94,9.48 C85.72,9.48 84.256,10.968 84.256,13.812 C84.256,16.656 85.72,18.144 87.94,18.144 L87.94,18.144 Z M87.94,16.524 C86.848,16.524 86.188,15.768 86.188,14.436 L86.188,13.188 C86.188,11.856 86.848,11.1 87.94,11.1 C89.032,11.1 89.692,11.856 89.692,13.188 L89.692,14.436 C89.692,15.768 89.032,16.524 87.94,16.524 Z M94.312,18 L94.912,16.008 L97.708,16.008 L98.308,18 L100.204,18 L97.48,9.624 L95.224,9.624 L92.464,18 L94.312,18 Z M97.264,14.46 L95.344,14.46 L96.268,11.28 L96.328,11.28 L97.264,14.46 L97.264,14.46 Z M104.524,18 C106.744,18 108.208,16.596 108.208,13.812 C108.208,11.028 106.744,9.624 104.524,9.624 L101.368,9.624 L101.368,18 L104.524,18 Z M104.524,16.38 L103.192,16.38 L103.192,11.244 L104.524,11.244 C105.604,11.244 106.276,11.832 106.276,13.164 L106.276,14.46 C106.276,15.792 105.604,16.38 104.524,16.38 Z" id="Shape" fill="var(--fill-color1)" fill-rule="nonzero"></path>
                            <g transform="translate(40.000000, 22.000000)" fill="var(--fill-color1)" fill-rule="nonzero" font-family="IBMPlexSans, IBM Plex Sans" font-size="10" font-weight="normal" id="for-macOS-.dmg">
                                <text>
                                    <tspan x="0" y="10">for macOS .dmg</tspan>
                                </text>
                            </g>
                        </g>
                        <g id="Group" transform="translate(8.000000, 8.000000)">
                            <path d="M16.196,5.79 L16.488,5.809 C18.245,5.864 19.873,6.745 20.881,8.187 C19.29,9.167 18.311,10.893 18.287,12.763 C18.289,14.879 19.554,16.788 21.5,17.612 C21.126,18.829 20.562,19.979 19.829,21.02 C18.844,22.495 17.812,23.935 16.174,23.962 C14.582,23.999 14.047,23.024 12.221,23.024 C10.379,23.024 9.808,23.935 8.281,23.999 C6.721,24.056 5.529,22.425 4.509,20.964 C2.47,17.981 0.882,12.557 3.011,8.867 C4.011,7.068 5.879,5.927 7.934,5.86 C9.496,5.828 10.946,6.916 11.906,6.916 C12.848,6.916 14.639,5.615 16.488,5.809 L16.196,5.79 Z M16.507,0 C16.614,1.393 16.174,2.773 15.28,3.847 C14.414,4.927 13.1,5.548 11.718,5.534 C11.63,4.181 12.083,2.848 12.977,1.829 C13.882,0.797 15.142,0.144 16.507,0 Z" id="Shape" fill="var(--fill-color1)" fill-rule="nonzero"></path>
                            <polygon id="Path" points="0 0 24 0 24 24 0 24"></polygon>
                        </g>
                    </g>
                </g>
            </g>
        </g>
    </g>
</svg>
